X: 445
T: Tiantian jianmian tiantian xiang
%%abc-version 2.0
%%abcx-abcm2ps-target-version 5.9.1 (29 Sep 2008)
%%abc-creator hum2abc beta
%%abcx-conversion-date 2013/10/02 07:52:30
%%abc-edited-by Helmut Schaffrath
%%humdrum-veritas 383010582
%%humdrum-veritas-data 2323431195
%%continueall 1
%%barnumbers 0
L: 1/8
M: 2/4
K: D
(3z B B (3B A F [I:setbarnb 1]| 
F/ E/E2E | 
e2d e | 
B4 | 
(3z B B (3B A F | 
F/ E/E2E | 
A2F E | 
e4 |]  



